X: 42807
T: Whittingham Green Lane
R: waltz
M: 3/4
K: Gmajor
BA|:G3 B d2|g4 f2|f6|e4 G2|F3 A c2|e4 d2|B6|
B4 BA|G3 B d2|g4 f2|f6|e4 G2|F3 A c2|e2 d2 F2|G6|1 G4 BA:|2 G4 d2||
|:d4 A2|A2 B3 c|B6|B4 d2|d2 A3 A|A2 d3 c|B6|B2 c2 d2|
e4 e2|c3 B c2|d3 e d2|B2 A2 G2|F2 A3 c|e2 d2 F2|G6|1 G4 d2:|2 G4||

